!!!ONB: MCCC : IWM0404_01 : Extracted Monophonic Melody
!!!COM: Mozart, Wolfgang Amadeus
!!!OPR: Piano Sonata No.4
!!!OMV: 1
!!!SCT: K.282 ; K⁶.189g
!!!ODT: 1775///
**kern
*thru
*staff1
*>A
*clefG2
*k[b-e-a-]
*E-:
*M4/4
*met(c)
*MM84
=1
8.b-
16cc
[4b-
8b-]
8b-
8ee-
8ee-
=2
16ee-
16dd
16cc
16b-
4b-
16dd
16cc
4cc
16ff
16dd
=3
16cc
16b-
4b-
16ee-
16b-
4.b-
8a-
=4
8g
8r
8b-
8r
8r
8gg
8ff
8ee-
=5
8.ee-
32dd
32ee-
4dd
8r
8aa-
8gg
8ff
=6
8.ff
32ee-
32ff
4ee-
8r
8ee-
8ff
8gg-
=7
8b-
8a
8r
8cc
8ee-
8dd-
8r
8b-
=8
16a
16b-
16a
16dd-
16cc
16ee
16ff
16dd-
4dd-
8cc
8r
=9
4r
16r
16b-
16dd
16ff
16ff
16ee-
16cc
16a
16r
16a
16cc
16ee-
=10
16gg
16ff
16dd
16b-
16r
16b-
16dd
16ff
16ff
16ee-
16cc
16a
16r
16a
16cc
16ee-
=11
16gg
16ff
16dd
16b-
16r
16ff
32ee
32ff
32aa
32ff
16bb-
16ff
[8ff
16ff]
16dd
32ff
32dd
32ff
32dd
=12
16gg
16ee-
[8ee-
16ee-]
16cc
32ee-
32cc
32ee-
32cc
16ff
16dd[
32dd]
32b-
32dd
32b-
16ee-
16cc[
32cc]
32a
32cc
32a
=13
32cc
32b-
32a
32b-
16cc
16dd
16ee-
16ff
16gg
16aa
32bb-
32ff
32ee
32ff
32gg
32ff
32ee
32ff
32r
32ff
32ee
32ff
32r
32ee
32ff
32ff#
=14
32gg
32cc
32b
32cc
32dd
32cc
32b
32cc
32r
32cc
32b
32cc
32r
32b
32cc
32dd-
16dd
16ee-
16ee
16ff
8.cc
32b-
32cc
=15
8b-
8r
8ee-
8r
16dd
32B-
32d
32c
32e-
32d
32f
32e-
32g
32f
32a-
32g
32b-
32a-
32cc
=16
*>A
*M4/4
8.b-
16cc
[4b-
8b-]
8b-
8ee-
8ee-
=17
16ee-
16dd
16cc
16b-
4b-
16dd
16cc
4cc
16ff
16dd
=18
16cc
16b-
4b-
16ee-
16b-
4.b-
8a-
=19
8g
8r
8b-
8r
8r
8gg
8ff
8ee-
=20
8.ee-
32dd
32ee-
4dd
8r
8aa-
8gg
8ff
=21
8.ff
32ee-
32ff
4ee-
8r
8ee-
8ff
8gg-
=22
8b-
8a
8r
8cc
8ee-
8dd-
8r
8b-
=23
16a
16b-
16a
16dd-
16cc
16ee
16ff
16dd-
4dd-
8cc
8r
=24
4r
16r
16b-
16dd
16ff
16ff
16ee-
16cc
16a
16r
16a
16cc
16ee-
=25
16gg
16ff
16dd
16b-
16r
16b-
16dd
16ff
16ff
16ee-
16cc
16a
16r
16a
16cc
16ee-
=26
16gg
16ff
16dd
16b-
16r
16ff
32ee
32ff
32aa
32ff
16bb-
16ff
[8ff
16ff]
16dd
32ff
32dd
32ff
32dd
=27
16gg
16ee-
[8ee-
16ee-]
16cc
32ee-
32cc
32ee-
32cc
16ff
16dd[
32dd]
32b-
32dd
32b-
16ee-
16cc[
32cc]
32a
32cc
32a
=28
32cc
32b-
32a
32b-
16cc
16dd
16ee-
16ff
16gg
16aa
32bb-
32ff
32ee
32ff
32gg
32ff
32ee
32ff
32r
32ff
32ee
32ff
32r
32ee
32ff
32ff#
=29
32gg
32cc
32b
32cc
32dd
32cc
32b
32cc
32r
32cc
32b
32cc
32r
32b
32cc
32dd-
16dd
16ee-
16ee
16ff
8.cc
32b-
32cc
=30
8b-
8r
8ee-
8r
16dd
32B-
32d
32c
32e-
32d
32f
32e-
32g
32f
32a-
32g
32b-
32a-
32cc
=31
*>B
16.b-
32cc
4b-
4bb-
8gg
8ee
8b-
=32
16b-
16a
4a
4a-
4a-
8a-[
=33
16a-]
16aa-
16gg
16aa-
16r
16ff
16ee
16ff
16r
16dd
16cc#
16dd
16r
16a-
16g
16a-
=34
4g
4g
4a-
4a
=35
32r
32b-
32a
32b-
32a
32b-
32cc
32b-
32r
32ee-
32dd
32ee-
32dd
32cc
32b-
32a
32r
32b-
32a
32b-
32a
32b-
32cc
32b-
32r
32ee-
32dd
32ee-
32dd
32cc
32b-
32a
=36
8a
16.cc
32b-
4b-
16b
16cc
16dd
16cc
16b-
16a-
16g
16f
=37
8g
8r
8b-
8r
8r
32ee-
32dd
32ee-
32ff
8ee-
8g
=38
8b-
8a-
8a-
8r
8r
32ee-
32dd
32ee-
32ff
8ee-
8dd-
=39
8b
8cc
8r
8cc
8ee-
8dd
8r
8b-
=40
8ff
8ee-
8r
8ee-
8ff
8gg-
8r
8ee-
=41
16dd
16ee-
16dd
16gg-
16ff
16aa
16bb-
16gg-
4gg-
8ff
8r
=42
4r
16r
16e-
16g
16b-
16b-
16a-
16f
16d
16r
16d
16f
16a-
=43
16cc
16b-
16g
16e-
16r
16ee-
16gg
16bb-
16bb-
16aa-
16ff
16dd
16r
16dd
16ff
16aa-
=44
16ccc
16bb-
16gg
16ee-
16r
16b-
32a
32b-
32dd
32b-
16ee-
16b-
[8b-
16b-]
16g
32b-
32g
32b-
32g
=45
16cc
16a-
[8a-
16a-]
16f
32a-
32f
32a-
32f
16b-
16g[
32g]
32e-
32g
32e-
16a-
16f[
32f]
32d
32f
32d
=46
32f
32e-
32d
32e-
16f
16g
16a-
16b-
16cc
16dd
32ee-
32bb-
32aa
32bb-
32ccc
32bb-
32aa
32bb-
32r
32bb-
32aa
32bb-
32r
32aa
32bb-
32bb
=47
32ccc
32ff
32ee
32ff
32gg
32ff
32ee
32ff
32r
32ff
32ee
32ff
32r
32ee
32ff
32gg-
16gg
16aa-
16aa
16bb-
8.ff
32ee-
32ff
=48
8ee-
8r
8aa-
8r
16r
32gg
32bb-
32aa-
32ff
32ee-
32gg
32ff
32dd
32cc
32ee-
32dd
32b-
32a-
32cc
=49
*>B
16.b-
32cc
4b-
4bb-
8gg
8ee
8b-
=50
16b-
16a
4a
4a-
4a-
8a-[
=51
16a-]
16aa-
16gg
16aa-
16r
16ff
16ee
16ff
16r
16dd
16cc#
16dd
16r
16a-
16g
16a-
=52
4g
4g
4a-
4a
=53
32r
32b-
32a
32b-
32a
32b-
32cc
32b-
32r
32ee-
32dd
32ee-
32dd
32cc
32b-
32a
32r
32b-
32a
32b-
32a
32b-
32cc
32b-
32r
32ee-
32dd
32ee-
32dd
32cc
32b-
32a
=54
8a
16.cc
32b-
4b-
16b
16cc
16dd
16cc
16b-
16a-
16g
16f
=55
8g
8r
8b-
8r
8r
32ee-
32dd
32ee-
32ff
8ee-
8g
=56
8b-
8a-
8a-
8r
8r
32ee-
32dd
32ee-
32ff
8ee-
8dd-
=57
8b
8cc
8r
8cc
8ee-
8dd
8r
8b-
=58
8ff
8ee-
8r
8ee-
8ff
8gg-
8r
8ee-
=59
16dd
16ee-
16dd
16gg-
16ff
16aa
16bb-
16gg-
4gg-
8ff
8r
=60
4r
16r
16e-
16g
16b-
16b-
16a-
16f
16d
16r
16d
16f
16a-
=61
16cc
16b-
16g
16e-
16r
16ee-
16gg
16bb-
16bb-
16aa-
16ff
16dd
16r
16dd
16ff
16aa-
=62
16ccc
16bb-
16gg
16ee-
16r
16b-
32a
32b-
32dd
32b-
16ee-
16b-
[8b-
16b-]
16g
32b-
32g
32b-
32g
=63
16cc
16a-
[8a-
16a-]
16f
32a-
32f
32a-
32f
16b-
16g[
32g]
32e-
32g
32e-
16a-
16f[
32f]
32d
32f
32d
=64
32f
32e-
32d
32e-
16f
16g
16a-
16b-
16cc
16dd
32ee-
32bb-
32aa
32bb-
32ccc
32bb-
32aa
32bb-
32r
32bb-
32aa
32bb-
32r
32aa
32bb-
32bb
=65
32ccc
32ff
32ee
32ff
32gg
32ff
32ee
32ff
32r
32ff
32ee
32ff
32r
32ee
32ff
32gg-
16gg
16aa-
16aa
16bb-
8.ff
32ee-
32ff
=66
8ee-
8r
8aa-
8r
16r
32gg
32bb-
32aa-
32ff
32ee-
32gg
32ff
32dd
32cc
32ee-
32dd
32b-
32a-
32cc
=67
*>C
8.b-
16cc
8b-
8b-
16b-
16b
16cc
16dd
16ee-
16ff
16gg
16ee-
=68
8ee-
4dd
8cc[
24cc]
24b-
24dd
24ee-
24gg
24b
24cc
24ee-
24g
24a-
24cc
24f
=69
4.e-
16g
16f
4f
8e-
8r
==
*-
